public/OS_logo.svg

<svg width="160" height="160" viewBox="0 0 160 160" fill="none" xmlns="http://www.w3.org/2000/svg">
<path d="M24.2741 107.592C23.0261 106.088 21.4581 105.336 19.5701 105.336C19.0261 105.336 18.4981 105.432 17.9861 105.624C17.4741 105.784 17.0101 106.056 16.5941 106.44C16.1781 106.824 15.8421 107.32 15.5861 107.928C15.3621 108.536 15.2501 109.256 15.2501 110.088C15.2501 111.528 15.6821 112.648 16.5461 113.448C17.4101 114.216 18.5461 114.952 19.9541 115.656C20.7861 116.072 21.6341 116.552 22.4981 117.096C23.3621 117.64 24.1461 118.296 24.8501 119.064C25.5541 119.832 26.1301 120.744 26.5781 121.8C27.0261 122.856 27.2501 124.104 27.2501 125.544C27.2501 127.208 26.9781 128.68 26.4341 129.96C25.9221 131.24 25.2181 132.328 24.3221 133.224C23.4581 134.088 22.4341 134.744 21.2501 135.192C20.0661 135.64 18.8181 135.864 17.5061 135.864C15.6181 135.864 13.8741 135.496 12.2741 134.76C10.6741 134.024 9.39406 133.096 8.43406 131.976L11.5541 127.752C12.2901 128.648 13.1701 129.352 14.1941 129.864C15.2501 130.376 16.3221 130.632 17.4101 130.632C18.6261 130.632 19.6341 130.216 20.4341 129.384C21.2341 128.552 21.6341 127.384 21.6341 125.88C21.6341 124.408 21.1541 123.24 20.1941 122.376C19.2341 121.512 18.0181 120.712 16.5461 119.976C15.6181 119.528 14.7381 119.032 13.9061 118.488C13.1061 117.944 12.3861 117.304 11.7461 116.568C11.1381 115.8 10.6421 114.92 10.2581 113.928C9.90606 112.904 9.73006 111.688 9.73006 110.28C9.73006 108.52 10.0021 107.016 10.5461 105.768C11.1221 104.488 11.8581 103.432 12.7541 102.6C13.6821 101.768 14.7221 101.16 15.8741 100.776C17.0261 100.36 18.1941 100.152 19.3781 100.152C21.1061 100.152 22.6421 100.44 23.9861 101.016C25.3621 101.56 26.5141 102.376 27.4421 103.464L24.2741 107.592ZM32.9726 135V101.016H48.1886V106.104H38.4926V115.128H47.4686V119.832H38.4926V129.864H48.6686V135H32.9726ZM69.0948 135L67.4148 127.8H58.4868L56.7588 135H50.9988L59.4468 101.016H66.7908L75.0948 135H69.0948ZM63.0948 106.44H62.9028L59.2068 123.288H66.6948L63.0948 106.44ZM86.7723 105.912V135H81.1083V105.912H74.7243V101.016H93.1563V105.912H86.7723ZM105.487 105.912V135H99.8227V105.912H93.4387V101.016H111.871V105.912H105.487ZM115.705 135V101.016H121.513V129.672H130.873V135H115.705ZM135.076 135V101.016H150.292V106.104H140.596V115.128H149.572V119.832H140.596V129.864H150.772V135H135.076Z" fill="black"/>
<path d="M24.1453 90.768C21.2653 90.768 18.7853 90.096 16.7053 88.752C14.6573 87.408 13.0733 85.584 11.9533 83.28C10.8653 80.976 10.3213 78.384 10.3213 75.504V33.936C10.3213 31.024 10.8653 28.432 11.9533 26.16C13.0733 23.856 14.6573 22.032 16.7053 20.688C18.7853 19.344 21.2653 18.672 24.1453 18.672C27.0253 18.672 29.4893 19.344 31.5373 20.688C33.6173 22.032 35.2013 23.856 36.2893 26.16C37.4093 28.464 37.9693 31.056 37.9693 33.936V75.504C37.9693 78.384 37.4093 80.976 36.2893 83.28C35.2013 85.584 33.6173 87.408 31.5373 88.752C29.4893 90.096 27.0253 90.768 24.1453 90.768ZM24.1453 80.688C25.4253 80.688 26.3213 80.16 26.8333 79.104C27.3453 78.016 27.6013 76.816 27.6013 75.504V33.936C27.6013 32.624 27.3293 31.44 26.7853 30.384C26.2413 29.296 25.3613 28.752 24.1453 28.752C22.9613 28.752 22.0813 29.296 21.5053 30.384C20.9613 31.44 20.6893 32.624 20.6893 33.936V75.504C20.6893 76.816 20.9613 78.016 21.5053 79.104C22.0493 80.16 22.9293 80.688 24.1453 80.688ZM48.0875 90V19.44H58.4555C62.3915 19.44 65.6715 20.304 68.2955 22.032C70.9515 23.76 72.9355 26.208 74.2475 29.376C75.5595 32.544 76.2155 36.272 76.2155 40.56C76.2155 44.848 75.5275 48.544 74.1515 51.648C72.7755 54.752 70.7595 57.184 68.1035 58.944C65.4795 60.672 62.2635 61.616 58.4555 61.776V90H48.0875ZM58.4555 51.216C60.2795 51.216 61.7195 50.864 62.7755 50.16C63.8315 49.424 64.5835 48.272 65.0315 46.704C65.5115 45.136 65.7515 43.12 65.7515 40.656C65.7515 38.16 65.5115 36.128 65.0315 34.56C64.5835 32.992 63.8155 31.84 62.7275 31.104C61.6715 30.368 60.2475 30 58.4555 30V51.216ZM84.7175 90V19.44H108.43V30.096H95.0855V49.104H104.686V59.472H95.0855V79.344H108.43V90H84.7175ZM119.004 90V19.44H128.7L138.3 56.208L139.164 59.472H139.74V19.44H149.244V90H140.508L129.948 53.232L129.084 49.968H128.508V90H119.004Z" fill="black"/>
</svg>

<svg width="160" height="160"><path d="M24.274 107.592c-1.248-1.504-2.816-2.256-4.704-2.256-.544 0-1.072.096-1.584.288-.512.16-.976.432-1.392.816-.416.384-.752.88-1.008 1.488-.224.608-.336 1.328-.336 2.16 0 1.44.432 2.56 1.296 3.36.864.768 2 1.504 3.408 2.208.832.416 1.68.896 2.544 1.44.864.544 1.648 1.2 2.352 1.968s1.28 1.68 1.728 2.736c.448 1.056.672 2.304.672 3.744 0 1.664-.272 3.136-.816 4.416-.512 1.28-1.216 2.368-2.112 3.264a8.582 8.582 0 0 1-3.072 1.968 10.49 10.49 0 0 1-3.744.672c-1.888 0-3.632-.368-5.232-1.104-1.6-.736-2.88-1.664-3.84-2.784l3.12-4.224a8.031 8.031 0 0 0 2.64 2.112c1.056.512 2.128.768 3.216.768 1.216 0 2.224-.416 3.024-1.248.8-.832 1.2-2 1.2-3.504 0-1.472-.48-2.64-1.44-3.504-.96-.864-2.176-1.664-3.648-2.4a23.432 23.432 0 0 1-2.64-1.488c-.8-.544-1.52-1.184-2.16-1.92a10.086 10.086 0 0 1-1.488-2.64c-.352-1.024-.528-2.24-.528-3.648 0-1.76.272-3.264.816-4.512.576-1.28 1.312-2.336 2.208-3.168a8.804 8.804 0 0 1 3.12-1.824 10.248 10.248 0 0 1 3.504-.624c1.728 0 3.264.288 4.608.864 1.376.544 2.528 1.36 3.456 2.448l-3.168 4.128ZM32.973 135v-33.984h15.216v5.088h-9.696v9.024h8.976v4.704h-8.976v10.032h10.176V135H32.973Zm36.122 0-1.68-7.2h-8.928l-1.728 7.2h-5.76l8.448-33.984h7.344L75.095 135h-6Zm-6-28.56h-.192l-3.696 16.848h7.488l-3.6-16.848Zm23.677-.528V135h-5.664v-29.088h-6.384v-4.896h18.432v4.896h-6.384Zm18.715 0V135h-5.664v-29.088h-6.384v-4.896h18.432v4.896h-6.384ZM115.705 135v-33.984h5.808v28.656h9.36V135h-15.168Zm19.371 0v-33.984h15.216v5.088h-9.696v9.024h8.976v4.704h-8.976v10.032h10.176V135h-15.696ZM24.145 90.768c-2.88 0-5.36-.672-7.44-2.016-2.048-1.344-3.632-3.168-4.752-5.472-1.088-2.304-1.632-4.896-1.632-7.776V33.936c0-2.912.544-5.504 1.632-7.776 1.12-2.304 2.704-4.128 4.752-5.472 2.08-1.344 4.56-2.016 7.44-2.016 2.88 0 5.344.672 7.392 2.016 2.08 1.344 3.664 3.168 4.752 5.472 1.12 2.304 1.68 4.896 1.68 7.776v41.568c0 2.88-.56 5.472-1.68 7.776-1.088 2.304-2.672 4.128-4.752 5.472-2.048 1.344-4.512 2.016-7.392 2.016Zm0-10.08c1.28 0 2.176-.528 2.688-1.584.512-1.088.768-2.288.768-3.6V33.936c0-1.312-.272-2.496-.816-3.552-.544-1.088-1.424-1.632-2.64-1.632-1.184 0-2.064.544-2.64 1.632-.544 1.056-.816 2.24-.816 3.552v41.568c0 1.312.272 2.512.816 3.6.544 1.056 1.424 1.584 2.64 1.584ZM48.087 90V19.44h10.368c3.937 0 7.216.864 9.84 2.592 2.656 1.728 4.64 4.176 5.953 7.344 1.311 3.168 1.968 6.896 1.968 11.184 0 4.288-.688 7.984-2.064 11.088-1.377 3.104-3.392 5.536-6.049 7.296-2.623 1.728-5.84 2.672-9.647 2.832V90H48.087Zm10.368-38.784c1.825 0 3.264-.352 4.32-1.056 1.056-.736 1.809-1.888 2.256-3.456.48-1.568.72-3.584.72-6.048 0-2.496-.24-4.528-.72-6.096-.448-1.568-1.216-2.72-2.304-3.456-1.055-.736-2.48-1.104-4.271-1.104v21.216ZM84.719 90V19.44h23.712v10.656H95.085v19.008h9.601v10.368h-9.6v19.872h13.344V90H84.717Zm34.286 0V19.44h9.696l9.6 36.768.864 3.264h.576V19.44h9.504V90h-8.736l-10.56-36.768-.864-3.264h-.576V90h-9.504Z"/></svg>
